!!!!SEGMENT: pl-kk--kk-i-389--008-008_anonim--missa-no-8-dona.krn
!!!cenid: 17xx:2513
!!!COM: Anonim
!!!COM-rismID: pe30004985
!!!CDT:
!!!CNT:
!!!OPR: [Missa] No. 8.
!!!OTL: Dona
!!!OMV: 008
!!!PDT:
!!!AGN: Sacred; Mass
!!!YEC: Copyright 2022 Narodowy Instytut Fryderyka Chopina (https://polishscores.org)
!!!YEM: License CC-BY-4.0 (https://creativecommons.org/licenses/by/4.0)
!!!SMS-siglum: PL-Kk
!!!SMS-shelfmark: Kk.I.389
!!!SMS-variant:
!!!SMS-altvar:
!!!SMS-shelfwork: 008-008 M
!!!NIFC-rismSourceID: 1001146182
!!!NIFC-rismChildID: 1001147247
!!!NIFC-islandoraID: pl-kk:6976
!!!URL-pdf-islandora: https://repozytorium.nifc.pl/islandora/object/pl-kk%3A6976/datastream/PDF/view
!!!URL-scan: https://polish.musicsources.pl/pl/lokalizacje/galeria/rekopisy/5999/1 @EN{Scan on Polish Music Sources Website} @PL{Skany w portalu Dziedzictwo Muzyki Polskiej w otwartym dostępie}
!!!IIIF:
!!!ONB-nifc: UWAGA: S – skan 14-15 , A – 32-34, T – 51-53 , B – 70-71. Części Mszy: Rorate, Kyrie, Gloria, Graduale, Sanctus, Benedictus, Agnus, Dona. Uwaga: Jeśli w części głosów Dona jest rozpisane a w pozostałych jest adnotacja „ut Kyrie”, wszystkie głosy należy rozpisać z podłożonym tekstem Dona (do ukrycia w humdrumie).
!!!AIN: 1 alto 1 bass 1 soprn 1 tenor
!!!key: C
**kern	**text	**kern	**text	**kern	**text	**kern	**text
*part4	*part4	*part3	*part3	*part2	*part2	*part1	*part1
*staff4	*staff4	*staff3	*staff3	*staff2	*staff2	*staff1	*staff1
*I"Basso.	*	*I"Tenore.	*	*I"Alto.	*	*I"Soprano.	*
*I'B.	*	*I'T.	*	*I'A.	*	*I'S.	*
*ICvox	*	*ICvox	*	*ICvox	*	*ICvox	*
*Ibass	*	*Itenor	*	*Ialto	*	*Isoprn	*
*clefF4	*	*clefC4	*	*clefC3	*	*clefC1	*
*k[b-]	*	*k[b-]	*	*k[b-]	*	*k[b-]	*
*C:	*	*C:	*	*C:	*	*C:	*
*M3/2	*	*M3/2	*	*M3/2	*	*M3/2	*
=1	=1	=1	=1	=1	=1	=1	=1
*	*	*	*	*	*	*all\right:global	*
!LO:TX:a:t=Dona ut Kyrie.	!	!LO:TX:a:t=Dona nobis ut Kyrie.	!	!	!	!	!
2C/	Do-	1c	Do-	1g	Do-	1ee	Do-
2E\	.	.	.	.	.	.	.
*	*	*	*	*2\right	*	*2\right	*
2G\	-na	2B-\	-na	2f\	-na	2dd\	-na
=2	=2	=2	=2	=2	=2	=2	=2
2c\	no-	1G	no-	1e	no-	1cc	no-
2E\	.	.	.	.	.	.	.
2G\	-bis	2G/	-bis	2d\	-bis	2b-\	-bis
=3	=3	=3	=3	=3	=3	=3	=3
.	.	.	.	.	.	8qqdd/	.
2C/	pa-	2G/	pa-	4e\	pa-	4cc\	pa-
.	.	.	.	8d\L	.	8b-\L	.
.	.	.	.	8e\J	.	8cc\J	.
.	.	.	.	8qqg/	.	8qqee/	.
2F\	.	2A/	.	2f\	.	2dd\	.
.	.	.	.	8qqe/	.	8qqcc/	.
2G\	.	2G/	.	2d\	.	2b-\	.
!	!	!	!	!LO:LB:g=original	!	!	!
=4	=4	=4	=4	=4	=4	=4	=4
2C/	-cem	2G/	-cem	2e\	-cem	2cc\	-cem
2r	.	2r	.	2r	.	2r	.
2r	.	2G/	Do-	4e\	Do-	4cc\	do-
.	.	.	.	4f\	-na	4dd\	-na
=5	=5	=5	=5	=5	=5	=5	=5
2r	.	2G/	-na	2e\	no-	2cc\	no-
2r	.	2G/	no-	2d\	-bis	2b-\	-bis
2G\	Do-	2G/	-bis	4f\	do-	4dd\	do-
.	.	.	.	4g\	-na	4ee\	-na
=6	=6	=6	=6	=6	=6	=6	=6
2c\	-na	2G/	do-	2f\	pa-	2dd\	no-
!	!	!	!	!	!	!LO:LB:g=original	!
1C	no-	2G/	-na	2e\	.	2cc\	-bis
.	.	2c\	no-	2g\	-cem	2ee\	pa-
=7	=7	=7	=7	=7	=7	=7	=7
2C/	-bis	2c\	-bis	2g\	pa-	2ee\	.
2F\	pa-	1A	pa-	2f\	.	2dd\	.
2F#X\	.	.	.	2e\	.	2cc\	.
=8	=8	=8	=8	=8	=8	=8	=8
1G	-cem	1G	-cem	1d	-cem	1b-	-cem
2r	.	2r	.	2r	.	2r	.
=9	=9	=9	=9	=9	=9	=9	=9
!	!	!LO:TX:a:t=Problem&colon; takt dopisany ołówkiem	!	!	!	!	!
!LO:TX:a:t=1	!	!LO:TX:a:t=1	!	!LO:TX:a:t=1.	!	!	!
1.r	.	1.r	.	1.r	.	1gg	Do-
.	.	.	.	.	.	2gg\	-na
=10	=10	=10	=10	=10	=10	=10	=10
2r	.	2r	.	2r	.	2.b-\	no-
2r	.	2r	.	2r	.	.	.
.	.	.	.	.	.	4dd\	.
4r	.	4r	.	4r	.	4ff\	.
4G\	da	4B-\	da	4g\	da	4dd\	-bis
!	!	!	!	!LO:LB:g=original	!	!	!
=11	=11	=11	=11	=11	=11	=11	=11
2C/	pa-	2c\	pa-	2g\	pa-	2cc\	pa-
2G\	-cem	2B-\	-cem	2g\	-cem	2dd\	-cem
2r	.	2r	.	2r	.	2r	.
=12	=12	=12	=12	=12	=12	=12	=12
2GG/	do-	4B-\	do-	4d\	do-	4dd\	do-
.	.	4d\	.	4f\	.	4b-\	.
2G\	.	4c\	.	4e\	.	2g\	.
.	.	4e\	.	4g\	.	.	.
2G\	-na	2d\	-na	2f\	-na	2b-\	-na
!	!	!	!	!	!	!LO:LB:g=original	!
=13	=13	=13	=13	=13	=13	=13	=13
2C/	no-	4c\	no-	4e\	no-	1g	no-
.	.	4e\	.	4g\	.	.	.
2G\	.	4d\	.	4f\	.	.	.
.	.	4f\	.	4a\	.	.	.
2c\	-bis	2e\	-bis	2g\	-bis	2g\	-bis
=14	=14	=14	=14	=14	=14	=14	=14
.	.	8qqg/	.	.	.	.	.
2F\	pa-	4f\	pa-	4a\	pa-	4cc\	pa-
.	.	8e\L	.	8g\L	.	4a\	.
.	.	8d\J	.	8f\J	.	.	.
2G\	.	2c\	.	2e\	.	1g	.
2GG/	.	2B-\	.	2d\	.	.	.
=15	=15	=15	=15	=15	=15	=15	=15
2C/	-cem	1c	-cem	1e	-cem	1g	-cem
2r	.	.	.	.	.	.	.
2C/	da	2c\	da	2e\	da	2g\	da
=16	=16	=16	=16	=16	=16	=16	=16
1.C	pa-	1.c	pa-	1.f	pa-	1.a	pa-
=17	=17	=17	=17	=17	=17	=17	=17
1.C	-cem.	1.c	-cem.	1.e	-cem.	1.g	-cem.
==	==	==	==	==	==	==	==
*-	*-	*-	*-	*-	*-	*-	*-
!!!system-decoration: [(s1,s2,s3,s4)]
!!!ENC: Berenika Jozajtis
!!!END: 2023-11-11
!!!ENC: Leszek Kubiak
!!!END: 2024-01-17
